!!!OTL: ES SPIELTE EIN RITTER MIT EINER MADAM
!!!ARE: Europa, Mitteleuropa, Deutschland, Ober - Westerwald; Unter - Taunus
!!!SCT: E0110F
!!!YEM: Copyright 1995, estate of Helmut Schaffrath.
**kern
*ICvox
*Ivox
*M6/8
*k[b-e-a-]
*E-:
{8B-
=1
8e-
8e-
8g
4b-
8cc
=2
4b-
8g
4e-}
{8b-
=3
4ee-
8ee-
8dd
8cc
8b-
=4
4.cc
4b-}
{8b-
=5
8cc
8cc
8cc
8ee-
8dd
8cc
=6
4b-
8a-
8g
8g}
{8cc
=7
4b-
8f
4a-
8a-
=8
4a-
8b-
4g}
==
!!!AGN: erzaehlendes Volks - Lied, Sage, Liebe, Leid, Tod, Ballade ?
!!!ONB: ESAC (Essen Associative Code) Database: ERK1
!!!AMT: compound duple
!!!AIN: vox
!!!EED: Helmut Schaffrath
!!!EEV: 1.0
*-
